svg/device/remote_control_line.svg

<svg xmlns="http://www.w3.org/2000/svg" width="24" height="24" viewBox="0 0 24 24"><g fill="none"><path d="M24,0 L24,24 L0,24 L0,0 L24,0 Z M12.5935,23.2578 L12.5819,23.2595 L12.5109,23.295 L12.4919,23.2987 L12.4767,23.295 L12.4057,23.2595 C12.3958,23.2564 12.387,23.259 12.3821,23.2649 L12.378,23.2758 L12.3609,23.7031 L12.3659,23.7235 L12.3769,23.7357 L12.4805,23.8097 L12.4953,23.8136 L12.5071,23.8097 L12.6107,23.7357 L12.6233,23.7197 L12.6267,23.7031 L12.6096,23.2758 C12.6076,23.2657 12.601,23.2593 12.5935,23.2578 Z M12.8584,23.1453 L12.8445,23.1473 L12.6598,23.2397 L12.6499,23.2499 L12.6472,23.2611 L12.6651,23.6906 L12.6699,23.7034 L12.6784,23.7105 L12.8793,23.8032 C12.8914,23.8069 12.9022,23.803 12.9078,23.7952 L12.9118,23.7812 L12.8777,23.1665 C12.8753,23.1546 12.8674,23.147 12.8584,23.1453 Z M12.143,23.1473 C12.1332,23.1424 12.1222,23.1453 12.1156,23.1526 L12.1099,23.1665 L12.0758,23.7812 C12.0751,23.7927 12.0828,23.8019 12.0926,23.8046 L12.1083,23.8032 L12.3092,23.7105 L12.3186,23.7024 L12.3225,23.6906 L12.3404,23.2611 L12.3372,23.2485 L12.3278,23.2397 L12.143,23.1473 Z"/><path fill="#09244B" d="M16,2 C17.597725,2 18.903664,3.24892392 18.9949075,4.82372764 L19,5 L19,19 C19,20.597725 17.7511226,21.903664 16.1762773,21.9949075 L16,22 L8,22 C6.40232321,22 5.09633941,20.7511226 5.00509271,19.1762773 L5,19 L5,5 C5,3.40232321 6.24892392,2.09633941 7.82372764,2.00509271 L8,2 L16,2 Z M16,4 L8,4 C7.48716857,4 7.06449347,4.38604429 7.0067278,4.88337975 L7,5 L7,19 C7,19.51285 7.38604429,19.9355092 7.88337975,19.9932725 L8,20 L16,20 C16.51285,20 16.9355092,19.613973 16.9932725,19.1166239 L17,19 L17,5 C17,4.44772 16.5523,4 16,4 Z M14,16 C14.5523,16 15,16.4477 15,17 C15,17.51285 14.613973,17.9355092 14.1166239,17.9932725 L14,18 L13.5,18 C12.9477,18 12.5,17.5523 12.5,17 C12.5,16.48715 12.886027,16.0644908 13.3833761,16.0067275 L13.5,16 L14,16 Z M10.5,16 C11.0523,16 11.5,16.4477 11.5,17 C11.5,17.5523 11.0523,18 10.5,18 L10,18 C9.44772,18 9,17.5523 9,17 C9,16.4477 9.44772,16 10,16 L10.5,16 Z M14,13 C14.5523,13 15,13.4477 15,14 C15,14.51285 14.613973,14.9355092 14.1166239,14.9932725 L14,15 L13.5,15 C12.9477,15 12.5,14.5523 12.5,14 C12.5,13.48715 12.886027,13.0644908 13.3833761,13.0067275 L13.5,13 L14,13 Z M10.5,13 C11.0523,13 11.5,13.4477 11.5,14 C11.5,14.5523 11.0523,15 10.5,15 L10,15 C9.44772,15 9,14.5523 9,14 C9,13.4477 9.44772,13 10,13 L10.5,13 Z M12,5 C13.933,5 15.5,6.567 15.5,8.5 C15.5,10.433 13.933,12 12,12 C10.067,12 8.5,10.433 8.5,8.5 C8.5,6.567 10.067,5 12,5 Z M12,7 C11.1716,7 10.5,7.67157 10.5,8.5 C10.5,9.32843 11.1716,10 12,10 C12.8284,10 13.5,9.32843 13.5,8.5 C13.5,7.67157 12.8284,7 12,7 Z"/></g></svg>

<svg xmlns="http://www.w3.org/2000/svg" width="24" height="24"><g fill="none"><path d="M24 0v24H0V0zM12.594 23.258l-.012.002-.071.035-.02.004-.014-.004-.071-.036c-.01-.003-.019 0-.024.006l-.004.01-.017.428.005.02.01.013.104.074.015.004.012-.004.104-.074.012-.016.004-.017-.017-.427c-.002-.01-.009-.017-.016-.018m.264-.113-.014.002-.184.093-.01.01-.003.011.018.43.005.012.008.008.201.092c.012.004.023 0 .029-.008l.004-.014-.034-.614c-.003-.012-.01-.02-.02-.022m-.715.002a.023.023 0 0 0-.027.006l-.006.014-.034.614c0 .012.007.02.017.024l.015-.002.201-.093.01-.008.003-.011.018-.43-.003-.012-.01-.01z"/><path fill="#09244B" d="M16 2a3 3 0 0 1 2.995 2.824L19 5v14a3 3 0 0 1-2.824 2.995L16 22H8a3 3 0 0 1-2.995-2.824L5 19V5a3 3 0 0 1 2.824-2.995L8 2zm0 2H8a1 1 0 0 0-.993.883L7 5v14a1 1 0 0 0 .883.993L8 20h8a1 1 0 0 0 .993-.883L17 19V5a1 1 0 0 0-1-1m-2 12a1 1 0 0 1 .117 1.993L14 18h-.5a1 1 0 0 1-.117-1.993L13.5 16zm-3.5 0a1 1 0 1 1 0 2H10a1 1 0 1 1 0-2zm3.5-3a1 1 0 0 1 .117 1.993L14 15h-.5a1 1 0 0 1-.117-1.993L13.5 13zm-3.5 0a1 1 0 1 1 0 2H10a1 1 0 1 1 0-2zM12 5a3.5 3.5 0 1 1 0 7 3.5 3.5 0 0 1 0-7m0 2a1.5 1.5 0 1 0 0 3 1.5 1.5 0 0 0 0-3"/></g></svg>
